X:1
T:All Praise to You, My God, This Night
T:Text: Thomas Ken, 1709, alt. Tune: Thomas Tallis, c. 1561
T:LM TALLIS CANON www.hymnary.org/text/all_praise_to_thee_my_god_this_night
T:All Praise to You, My God, This Night
T:This hymn is in the public domain. You may freely use this score for personal and congregational worship. If you reproduce the score, please credit Hymnary.org as the source. 
T:This hymn is in the public domain. You may freely use this score for personal and congregational worship. If you reproduce the score, please credit Hymnary.org as the source. 
Z:This hymn is in the public domain. You may freely use this score for personal and congregational worship. If you reproduce the score, please credit Hymnary.org as the source.
%%score ( 1 2 ) ( 3 4 )
L:1/8
M:4/4
K:G
V:1 treble nm="SOPRANO ALTO" snm="S. A."
V:2 treble 
V:3 bass nm="TENOR BASS" snm="T. B."
V:4 bass 
V:1
"^May be sung in canon""^G""^1""^2""^3""^4" G2 |"^D" G2 F2"^Em" G2 G2 |"^D" A2 A2"^G" B2 G2 | %3
w: All|praise to you, my|God, this night, for|
w: For-|give me, Lord, for|this I pray, the|
w: Lord,|may I be at|rest in you and|
w: Praise,|God, from whom all|bless- ings flow; praise|
"^Am" c2 c2"^G" B2 B2 |"^D" A2 A2"^G" G2 d2 |"^Am" c2 A2"^G" B2 B2 |"^D" A2 A2"^G" G2 D2 |1 %7
w: all the bless- ings|of the light. Keep|me, O keep me,|King of kings, be-|
w: wrong that I have|done this day. May|peace with God and|neigh- bor be, be-|
w: sweet- ly sleep the|whole night through. Re-|fresh my strength, for|your own sake, so|
w: him, all crea- tures|here be- low. Praise|him a- bove, you|heav- enly host; praise|
"^Am" E2 F2"^G" G2 B2 |"^D" A2 A2"^G" G2"^for canon only" B2 |"^D" A2 A2"^G" G2 x2 |] %10
w: neath the shel- ter|of your wings. (~ter|of your wings.)|
w: fore I sleep, re-|stored to me. (re-|stored to me.)|
w: I may serve you|when I wake. (you|when I wake.)|
w: Fa- ther, Son, and|Ho- ly Ghost. (and|Ho- ly Ghost)|
V:2
 D2 | D2 D2 B,2 D2 | E2 D2 D2 D2 | E2 F2 G2 D2 | E2 D2 D2 G2 | E2 D2 D2 D2 | E2 F2 G2 G,2 |1 %7
 E2 D2 B,2 D2 | C2 A,2 B,2 D2 | C2 A,2 B,2 x2 |] %10
V:3
 B,2 | A,2 A,2 G,2 G,2 | G,2 F,2 G,2 G,2 | A,2 A,2 B,2 G,2 | C2 C2 B,2 B,2 | A,2 A,2 G,2 D2 | %6
 C2 A,2 B,2 B,2 |1 A,2 A,2 G,2 G,2 | E,2 F,2 G,2 G,2 | E,2 F,2 G,2 x2 |] %10
V:4
 G,,2 | D,2 D,2 E,2 B,,2 | C,2 D,2 G,,2 B,,2 | A,,2 A,,2 G,,2 G,2 | G,2 F,2 G,2 G,2 | %5
 A,2 F,2 G,2 G,,2 | C,2 D,2 G,,2 B,,2 |1 C,2 D,2 E,2 B,,2 | C,2 D,2 G,,2 B,,2 | C,2 D,2 G,,2 x2 |] %10

